X:1
T:Samuel Webbe
T:Melcombe
%%score { ( 1 4 ) | ( 2 3 ) }
L:1/8
M:4/2
K:E
V:1 treble nm="Piano"
V:4 treble 
V:2 bass 
V:3 bass 
V:1
 [EB]4 | B4 A4 G4 F4 | E4 c4 B4 B4 | e4 d4 c4 B4 | B4 ^A4 B4 G4 | G4 A4 B4 G4 | F6 G2 A4 A4 | %7
 G4 F4 B4 A4 | G4 F4 E4 | A8 G8 |] %10
V:2
 G,4 | G,4 A,4 B,4 B,4 | G,4 A,4 G,4 B,4 | ^A,4 B,4 A,4 B,4 | G,4 F,4 F,4 G,4 | B,4 A,4 G,4 B,4 | %6
 B,6 B,2 C4 A,4 | B,4 B,4 B,4 C4 | B,6 A,2 G,4 | C8 B,8 |] %10
V:3
 E,4 | ^G,4 F,4 E,4 B,,4 | C,4 A,,4 E,4 D,4 | C,4 D,2 E,2 F,4 G,4 | C,4 ^F,4 B,,4 E,4 | %5
 E,4 F,4 ^G,4 E,4 | B,,6 G,,2 F,,4 F,4 | E,4 B,,4 G,,4 A,,4 | B,,4 B,,4 E,4 | A,,8 E,8 |] %10
V:4
 x4 | B,4 C2 D2 E4 D4 | C4 E4 E4 F4 | E4 F4 F4 D4 | E4 E4 D4 E4 | E4 D2 C2 B,4 E4 | %6
 D6 E2 F4 C2 D2 | E4 D4 E4 E4 | E4 D4 =E4 | E8 E8 |] %10

